src/OnboardingSPA/static/icons/group-team-white.svg

<svg fill="none" height="14" viewBox="0 0 20 14" width="20" xmlns="http://www.w3.org/2000/svg"><path clip-rule="evenodd" d="m14.2424 4.63636c.3215 0 .6298-.12451.8571-.34614.2273-.22164.355-.52223.355-.83567 0-.31345-.1277-.61404-.355-.83568-.2273-.22163-.5356-.34614-.8571-.34614-.3214 0-.6298.12451-.8571.34614-.2272.22164-.355.52223-.355.83568 0 .31344.1278.61403.355.83567.2273.22163.5357.34614.8571.34614zm0 1.77273c.8037 0 1.5744-.31128 2.1428-.86536.5683-.55409.8875-1.30559.8875-2.08918 0-.7836-.3192-1.5351-.8875-2.08918-.5684-.554089-1.3391-.86537-2.1428-.86537-.8036 0-1.5744.311281-2.1428.86537-.5682.55408-.8875 1.30558-.8875 2.08918 0 .78359.3193 1.53509.8875 2.08918.5684.55408 1.3392.86536 2.1428.86536zm-2.7272 7.09091v-2.3636c0-.862-.3512-1.68864-.9764-2.29813-.62508-.6095-1.47292-.95191-2.35698-.95191h-4.84849c-.88406 0-1.7319.34241-2.357015.95191-.625127.60949-.976315 1.43613-.976315 2.29813v2.3636h1.81818v-2.3636c0-.8155.67879-1.47731 1.51515-1.47731h4.84849c.83636 0 1.51515.66181 1.51515 1.47731v2.3636zm8.4848-2.3636v2.3636h-1.8182v-2.3636c0-.8155-.6788-1.47731-1.5151-1.47731h-3.0303v-1.77273h3.0303c.884 0 1.7318.34241 2.3569.95191.6252.60949.9764 1.43613.9764 2.29813zm-13.0303-7.68185c0 .31344-.12771.61403-.35502.83567-.22732.22163-.53563.34614-.8571.34614-.32148 0-.62979-.12451-.85711-.34614-.22731-.22164-.35502-.52223-.35502-.83567 0-.31345.12771-.61404.35502-.83568.22732-.22163.53563-.34614.85711-.34614.32147 0 .62978.12451.8571.34614.22731.22164.35502.52223.35502.83568zm1.81818 0c0 .78359-.31926 1.53509-.88755 2.08918-.56829.55408-1.33907.86536-2.14275.86536-.80369 0-1.57446-.31128-2.14276-.86536-.56829-.55409-.88755-1.30559-.88755-2.08918 0-.7836.31926-1.5351.88755-2.08918.5683-.554089 1.33907-.86537 2.14276-.86537.80368 0 1.57446.311281 2.14275.86537.56829.55408.88755 1.30558.88755 2.08918z" fill="#fff" fill-rule="evenodd"/></svg>

<svg width="20" height="14" viewBox="0 0 20 14" fill="none" xmlns="http://www.w3.org/2000/svg">
<path fill-rule="evenodd" clip-rule="evenodd" d="M14.2424 4.63636C14.5639 4.63636 14.8722 4.51185 15.0995 4.29022C15.3268 4.06858 15.4545 3.76799 15.4545 3.45455C15.4545 3.1411 15.3268 2.84051 15.0995 2.61887C14.8722 2.39724 14.5639 2.27273 14.2424 2.27273C13.921 2.27273 13.6126 2.39724 13.3853 2.61887C13.1581 2.84051 13.0303 3.1411 13.0303 3.45455C13.0303 3.76799 13.1581 4.06858 13.3853 4.29022C13.6126 4.51185 13.921 4.63636 14.2424 4.63636ZM14.2424 6.40909C15.0461 6.40909 15.8168 6.09781 16.3852 5.54373C16.9535 4.98964 17.2727 4.23814 17.2727 3.45455C17.2727 2.67095 16.9535 1.91945 16.3852 1.36537C15.8168 0.811281 15.0461 0.5 14.2424 0.5C13.4388 0.5 12.668 0.811281 12.0996 1.36537C11.5314 1.91945 11.2121 2.67095 11.2121 3.45455C11.2121 4.23814 11.5314 4.98964 12.0996 5.54373C12.668 6.09781 13.4388 6.40909 14.2424 6.40909ZM11.5152 13.5V11.1364C11.5152 10.2744 11.164 9.44776 10.5388 8.83827C9.91372 8.22877 9.06588 7.88636 8.18182 7.88636H3.33333C2.44927 7.88636 1.60143 8.22877 0.976315 8.83827C0.351188 9.44776 0 10.2744 0 11.1364V13.5H1.81818V11.1364C1.81818 10.3209 2.49697 9.65909 3.33333 9.65909H8.18182C9.01818 9.65909 9.69697 10.3209 9.69697 11.1364V13.5H11.5152ZM20 11.1364V13.5H18.1818V11.1364C18.1818 10.3209 17.503 9.65909 16.6667 9.65909H13.6364V7.88636H16.6667C17.5507 7.88636 18.3985 8.22877 19.0236 8.83827C19.6488 9.44776 20 10.2744 20 11.1364ZM6.9697 3.45455C6.9697 3.76799 6.84199 4.06858 6.61468 4.29022C6.38736 4.51185 6.07905 4.63636 5.75758 4.63636C5.4361 4.63636 5.12779 4.51185 4.90047 4.29022C4.67316 4.06858 4.54545 3.76799 4.54545 3.45455C4.54545 3.1411 4.67316 2.84051 4.90047 2.61887C5.12779 2.39724 5.4361 2.27273 5.75758 2.27273C6.07905 2.27273 6.38736 2.39724 6.61468 2.61887C6.84199 2.84051 6.9697 3.1411 6.9697 3.45455ZM8.78788 3.45455C8.78788 4.23814 8.46862 4.98964 7.90033 5.54373C7.33204 6.09781 6.56126 6.40909 5.75758 6.40909C4.95389 6.40909 4.18312 6.09781 3.61482 5.54373C3.04653 4.98964 2.72727 4.23814 2.72727 3.45455C2.72727 2.67095 3.04653 1.91945 3.61482 1.36537C4.18312 0.811281 4.95389 0.5 5.75758 0.5C6.56126 0.5 7.33204 0.811281 7.90033 1.36537C8.46862 1.91945 8.78788 2.67095 8.78788 3.45455Z" fill="white"/>
</svg>
